assets/img/sketch-3-basics/book-pages.svg

<?xml version="1.0" encoding="UTF-8" standalone="no"?>
<svg width="288px" height="288px" viewBox="0 0 288 288" version="1.1" xmlns="http://www.w3.org/2000/svg" xmlns:xlink="http://www.w3.org/1999/xlink">
    <defs></defs>
    <g stroke="none" stroke-width="1" fill="none" fill-rule="evenodd">
        <g transform="translate(-59.000000, -3713.000000)">
            <g transform="translate(59.000000, 3713.000000)">
                <path d="M144,288 C223.529004,288 288,223.529004 288,144 C288,64.470996 223.529004,0 144,0 C64.470996,0 0,64.470996 0,144 C0,223.529004 64.470996,288 144,288 Z M144,284 C221.319865,284 284,221.319865 284,144 C284,66.680135 221.319865,4 144,4 C66.680135,4 4,66.680135 4,144 C4,221.319865 66.680135,284 144,284 Z" fill="#F5A623"></path>
                <path d="M132,202.015495 C120,198.135433 64,206.02072 64,206.02072 L64,82.8600344 C64,82.8600344 120,75.9760529 132,78.8548088 C144,81.7335647 144,86.9904232 144,86.9904232 C144,86.8182046 144,81.5613461 156,78.6825902 C168,75.8038343 224,82.6878158 224,82.6878158 L224,205.848502 C224,205.848502 168,197.963214 156,201.843276 C144,205.723338 144,209.978891 144,209.978891 C144,210.151109 144,205.895557 132,202.015495 Z" fill="#F6A623"></path>
            </g>
        </g>
        <g></g>
    </g>
</svg>

<svg width="288" height="288" viewBox="0 0 288 288" xmlns="http://www.w3.org/2000/svg"><g fill="none"><path d="M144 288c79.53 0 144-64.47 144-144s-64.47-144-144-144-144 64.47-144 144 64.47 144 144 144zm0-4c77.32 0 140-62.68 140-140s-62.68-140-140-140-140 62.68-140 140 62.68 140 140 140z" fill="#F5A623"/><path d="M132 202.015c-12-3.88-68 4.006-68 4.006v-123.161s56-6.884 68-4.005c12 2.88 12 8.135 12 8.135 0-.172 0-5.43 12-8.307 12-2.88 68 4.005 68 4.005v123.16s-56-7.885-68-4.005l-12 8.136c0 .17 0-4.084-12-7.965z" fill="#F6A623"/></g></svg>
